X:141
T:Yorkshire Man in London. JGi.141, The
T:Because He Was A Bonny Lad,aka. JGi.141
M:C|
L:1/8
Q:1/4=120
B:Joshua Gibbons MS,1823,Tealby,Lincs.
Z:Village Music Project, R.Greig, 2009
K:G
g|dcBA GFG2|GdBd GdBd|dcBA GFGf|gfed efg2|
fafa fbbg|fafa faag|fbfb fbba|gfed efg2|]

